x-pack/platform/plugins/shared/index_management/public/assets/go.svg

<svg width="128" height="128" viewBox="0 0 128 128" fill="none" xmlns="http://www.w3.org/2000/svg">
<g clip-path="url(#clip0_693_142132)">
<path fill-rule="evenodd" clip-rule="evenodd" d="M9.66031 54.3916C9.41043 54.3916 9.34873 54.2661 9.47316 54.08L10.7822 52.3967C10.9056 52.2095 11.2182 52.0851 11.467 52.0851H33.7165C33.9664 52.0851 34.0281 52.2723 33.9037 52.4594L32.8445 54.08C32.7201 54.2661 32.4085 54.4533 32.2214 54.4533L9.66031 54.3916ZM0.249232 60.1244C0.000381008 60.1244 -0.0623457 60.001 0.0620796 59.8128L1.37112 58.1305C1.49554 57.9434 1.80712 57.8189 2.057 57.8189H30.4753C30.7242 57.8189 30.8496 58.0061 30.7869 58.1932L30.2882 59.6884C30.2265 59.9383 29.9766 60.0627 29.7277 60.0627L0.249232 60.1244ZM15.3304 65.8583C15.0816 65.8583 15.0199 65.6711 15.1443 65.484L16.0163 63.9261C16.1417 63.7389 16.3906 63.5528 16.6405 63.5528H29.1036C29.3534 63.5528 29.4779 63.7389 29.4779 63.9888L29.3545 65.484C29.3545 65.7338 29.1046 65.921 28.9174 65.921L15.3304 65.8583ZM80.0213 53.2697C76.0942 54.2672 73.4144 55.0147 69.551 56.0112C68.6153 56.2611 68.5536 56.3228 67.7433 55.388C66.8085 54.3289 66.1227 53.643 64.8147 53.0198C60.8875 51.0887 57.0859 51.6491 53.5341 53.9556C49.2964 56.6971 47.1154 60.7476 47.1771 65.7955C47.2388 70.7818 50.6672 74.895 55.5907 75.5809C59.8284 76.1413 63.3812 74.6451 66.1854 71.4677C66.7458 70.7818 67.2446 70.0342 67.8677 69.1612H55.8396C54.5316 69.1612 54.22 68.3509 54.656 67.2917C55.4663 65.3595 56.9615 62.1193 57.8335 60.4987C58.0216 60.1244 58.4576 59.5013 59.3924 59.5013H82.0769C81.9535 61.1846 81.9535 62.8669 81.7036 64.5503C81.0177 69.0368 79.3354 73.15 76.5929 76.7645C72.1054 82.6855 66.2481 86.3617 58.8309 87.3592C52.7238 88.1695 47.0527 86.9849 42.0674 83.2459C37.4555 79.7558 34.8384 75.1439 34.1526 69.4111C33.3422 62.6181 35.3361 56.5099 39.4494 51.1504C43.8742 45.3548 49.7325 41.6776 56.8998 40.3686C62.758 39.3094 68.3664 39.9953 73.4144 43.4226C76.7173 45.6037 79.0855 48.595 80.6434 52.2095C81.0177 52.771 80.7689 53.0826 80.0202 53.2687L80.0213 53.2697Z" fill="#00ACD7"/>
<path d="M100.649 87.7334C94.9782 87.608 89.8048 85.9884 85.4427 82.2484C81.7655 79.0709 79.46 75.0194 78.7124 70.2203C77.5905 63.1784 79.5217 56.9459 83.7604 51.4002C88.3096 45.4165 93.7936 42.3007 101.211 40.9917C107.567 39.8708 113.55 40.494 118.972 44.1702C123.895 47.5358 126.948 52.0851 127.759 58.0677C128.818 66.4814 126.388 73.3371 120.591 79.1954C116.478 83.3703 111.43 85.9884 105.635 87.172C103.952 87.4835 102.269 87.5463 100.649 87.7334ZM115.482 62.5553C115.42 61.745 115.42 61.1218 115.295 60.4987C114.174 54.3288 108.501 50.8387 102.582 52.2105C96.785 53.5185 93.046 57.1957 91.6753 63.054C90.5534 67.9148 92.9216 72.8384 97.4081 74.8323C100.836 76.3284 104.264 76.1413 107.567 74.459C112.49 71.9036 115.17 67.9148 115.482 62.5553Z" fill="#00ACD7"/>
</g>
<defs>
<clipPath id="clip0_693_142132">
<rect width="128" height="128" fill="white"/>
</clipPath>
</defs>
</svg>

<svg xmlns="http://www.w3.org/2000/svg" width="128" height="128" fill="none"><g fill="#00ACD7" clip-path="url(#a)"><path fill-rule="evenodd" d="M9.66 54.392c-.25 0-.311-.126-.187-.312l1.31-1.683c.123-.187.435-.312.684-.312h22.25c.25 0 .311.187.187.374l-1.06 1.621c-.124.186-.436.373-.623.373zM.25 60.124c-.25 0-.312-.123-.188-.311l1.31-1.683c.124-.187.435-.311.685-.311h28.418c.25 0 .375.187.312.374l-.499 1.495c-.061.25-.311.375-.56.375zm15.08 5.734c-.248 0-.31-.187-.186-.374l.872-1.558c.126-.187.375-.373.625-.373h12.463c.25 0 .374.186.374.436l-.123 1.495c0 .25-.25.437-.438.437zM80.021 53.27c-3.927.997-6.607 1.745-10.47 2.741-.936.25-.997.312-1.808-.623-.934-1.06-1.62-1.745-2.928-2.368-3.927-1.931-7.73-1.37-11.28.936-4.239 2.741-6.42 6.792-6.358 11.84.062 4.986 3.49 9.099 8.414 9.785 4.237.56 7.79-.936 10.594-4.113.56-.686 1.06-1.434 1.683-2.307H55.84c-1.308 0-1.62-.81-1.184-1.87.81-1.931 2.306-5.172 3.178-6.792.188-.375.624-.998 1.558-.998h22.685c-.123 1.684-.123 3.366-.373 5.05-.686 4.486-2.369 8.599-5.111 12.213-4.488 5.922-10.345 9.598-17.762 10.595-6.107.81-11.778-.374-16.764-4.113-4.611-3.49-7.229-8.102-7.914-13.835-.81-6.793 1.183-12.901 5.296-18.26 4.425-5.796 10.284-9.473 17.45-10.782 5.859-1.06 11.467-.374 16.515 3.054 3.303 2.18 5.671 5.172 7.23 8.786.374.562.125.874-.624 1.06z" clip-rule="evenodd"/><path d="M100.649 87.733c-5.67-.125-10.844-1.745-15.206-5.485-3.677-3.177-5.983-7.229-6.73-12.028-1.122-7.042.809-13.274 5.047-18.82 4.55-5.983 10.034-9.1 17.451-10.408 6.356-1.121 12.339-.498 17.761 3.178 4.923 3.366 7.976 7.915 8.787 13.898 1.059 8.413-1.371 15.27-7.168 21.127-4.113 4.175-9.161 6.793-14.956 7.977-1.683.312-3.366.374-4.986.561m14.833-25.178c-.062-.81-.062-1.433-.187-2.056-1.121-6.17-6.794-9.66-12.713-8.288-5.797 1.308-9.536 4.985-10.907 10.843-1.122 4.86 1.247 9.784 5.733 11.778 3.428 1.496 6.856 1.31 10.159-.373 4.923-2.555 7.603-6.544 7.915-11.904"/></g><defs><clipPath id="a"><path fill="#fff" d="M0 0h128v128H0z"/></clipPath></defs></svg>
